X:1
T:Title
%%score { ( 1 3 4 ) | 2 }
L:1/8
Q:1/4=100
M:4/4
K:G
V:1 treble nm="Grand Piano"
V:3 treble 
V:4 treble 
V:2 bass 
V:1
 D2 G>A B2 c>B | B2 A2 A4 | D2 A>B [Fc]2 [Fd]>[Fc] | c2 B2 B4 | G2 B>c d2 d>d | %5
w: D.~B.~Towner * * * * *|||||
 [EGc]2 [EG]2 [DGB]2 [DGB]2 | [DGB] [CFA]2 [CFA] [DFB]2 [CFA]>[CFA] | [G,B,G]6 z2 | d d2 e d2 c>B | %9
w: ||||
 c6 z2 | [Fc] [Fc]2 [Fd] [Fc]2 B>[DFA] | [DB]2- [D-GB-]>[D-GB-] [DGB]2 z2 | B2 B>B c2 B>B | %13
w: ||||
 [GB]2 [FA]>[=F^G] [^FA]4 | [FA]2 [FA]>[FA] [GB]2 A>A | A2 G2 G4 | B2 B>B d2 d>d | %17
w: ||||
[M:9/8] [EGc]2 [EG]- [EG] [DGB]2- [DGB][DGB]>[EGc] |[M:4/4] [DGB] [CFA]2 [CFA] [DFB]2 [CFA]>[CFA] | %19
w: ||
 [B,G]6 z2 |] %20
w: |
V:2
 [G,B,]2 [G,B,]>[G,C] [G,D]2 [G,E]>[G,D] | [D,G,D]2 [D,F,C]2 [D,F,C]4 | %2
 [D,F,C]2 [D,F,D]>[D,G,D] [D,A,]2 [D,A,]>[D,A,] | [G,E]2 [G,D]2 [G,D]4 | %4
 [G,B,D]2 [G,DG]>[G,CG] [G,B,G]2 [G,B,G]>[G,B,G] | C,2 C,2 G,2 G,2 | D, D,2 D, D,2 D,>D, | %7
 A,,6 z2 | [G,B,G] [G,B,G]2 [G,CG] [G,B,G]2 A,>[G,G] | [A,EF]>[K:bass]G, F,>E, D,2 z2 | %10
 [D,A,] [D,A,]2 [D,B,] [D,A,]2 D>D, | G,>D, B,,>D, G,,2 z2 | %12
 [G,DG]2 [G,DG]>[G,DG] [G,EG]2 [G,DG]>[G,DG] | [D,D]2 [D,D]>[D,D] [D,D]4 | %14
 [D,D]2 [D,D]>[D,D] [D,D]2 [D,CD]>[D,CD] | [G,CD]2 [G,B,D]2 [G,B,D]4 | %16
 [G,D]2 [G,D]>[G,D] [G,B,G]2 [G,B,G]>[G,B,G] |[M:9/8][K:bass] C,2 C,- C, G,2- G,G,>G, | %18
[M:4/4] D, D,2 D, D,2 D,>D, | G,,6 z2 |] %20
V:3
 x8 | x8 | x8 | x8 | x8 | x8 | x8 | x8 | x8 | z2 A>G F2 z2 | x8 | G2 z2 z4 | x8 | x8 | x8 | x8 | %16
 x8 |[M:9/8] x9 |[M:4/4] x8 | x8 |] %20
V:4
 x8 | x8 | x8 | x8 | x8 | x8 | x8 | x8 | x8 | z z/ E/- E4 z2 | x8 | x8 | x8 | x8 | x8 | x8 | x8 | %17
[M:9/8] x9 |[M:4/4] x8 | x8 |] %20

